X: 6
T: The Trip To Pakistan
R: reel
M: 4/4
L: 1/8
K: Emin
|:EGBE G3B|A3G FGAF|EGBE G3B|AFDE FE E2:||
|:EGBE c3A|B3G AGFG|EGBE c3A|BAGA BA A2:||
|:FGBF GBFG|EFGE FGEF|DFAD FADF|AGFG E4:||
|:EGBe e3f/g/|agbg agfg|EGBe e3f/g/|agfg e4:||


Tune 112	Setting 23457

